X:195
T:Molly put the kettle on
T:Polly put the kettle on
R:Reel
O:Ireland
B:Roche 1 n196
B:O'Neill's 1363
S:O'Neill's 1363
Z:Transcription:Trish O'Neil, minor arr., chords:Mike Long
M:C|
L:1/8
K:C
"Am"cded cA~A2|"G"Bcdc BGG2|"Am"ceed "G"cBAG|"E"EDE^G "Am"A2A2|\
"Am"cded cA~A2|
"G"Bcdc BGG2|"Am"cBcA "G"B2AG|"E"EDE^G "Am"A2A2|]\
"G"Bde^f g2fg|"Am"aged cAA2|
"G"Bde^f g2fg|"Am"ageg a2a2|\
"G"Bde^f g2fg|"Am"aged cAA2|"(C)"ceed "Am"cAAG|"E"EDE^G "Am"A2A2|]
